assets/images/free_gift_easyship_promo_colored.svg

<svg fill="none" height="60" viewBox="0 0 73 60" width="73" xmlns="http://www.w3.org/2000/svg" xmlns:xlink="http://www.w3.org/1999/xlink"><linearGradient id="a" gradientUnits="userSpaceOnUse" x1="36.0012" x2="36.0012" y1="0" y2="60.0001"><stop offset="0" stop-color="#eec800"/><stop offset=".46875" stop-color="#ee148a"/><stop offset="1" stop-color="#c728ff"/></linearGradient><path clip-rule="evenodd" d="m17.9885 36.7086c1.676 13.1322 13.081 23.2915 26.901 23.2915 14.9741 0 27.113-11.9269 27.113-26.6394 0-14.7126-12.1389-26.63947-27.113-26.63947-4.9783 0-9.6432 1.31826-13.6528 3.61887l-.178-.60434c-.1444-.48628-.4743-.89152-.9229-1.13466-.2887-.15702-.6083-.23807-.9331-.23807-.1804 0-.3609.02533-.5362.07598l-6.7846 1.92989c.5104-.54196.9538-1.12955 1.3147-1.74753.4949-.84593.83-1.72225.995-2.61377.1649-.87632.1546-1.72224-.0206-2.51245-.2269-1.01815-.7373-1.87928-1.4642-2.49219-.7785-.653445-1.7838-1.00296-2.9077-1.00296-.6599 0-1.361.116505-2.088.354581-2.1498.693969-3.418 2.476999-3.7738 5.293379-.1959 1.57028-.1031 3.27733.0619 4.92364-.4382-.4661-.9538-.99286-1.526-1.52474-1.0053-.93203-1.9643-1.67665-2.86132-2.21359-1.20639-.72942-2.31997-1.0992-3.30982-1.0992-1.04656 0-1.9694.4103-2.68085 1.19544-.52586.58253-.8455 1.22584-.94861 1.90967-.09795.64838.00516 1.30182.30417 1.95522.71661 1.5703 2.52103 2.9076 4.66056 3.6269l-6.07316 1.7222c-1.025939.2938-1.6136635 1.3424-1.319801 2.3504l1.417761 4.8223c.14435.4863.4743.8915.92283 1.1346.28871.1571.60834.2381.93314.2381.18044 0 .36088-.0253.53617-.076l.31964-.0911 3.79443 12.8915c.25778.8763 1.0775 1.4487 1.96426 1.4487.1907 0 .3815-.0253.5671-.081zm9.5242-23.7978c-.4292.3524-.8471.7177-1.2532 1.0951h-6.5429l7.4909-2.1275zm2.0252-1.511c-.0971.0656-.1937.1318-.2898.1987l-.0815-.2773c-.1031-.3393-.2887-.6483-.5465-.8915l.5826-.1671zm-27.43756 6.5673 1.42291 4.8223.31449-.0912-1.13421-3.8599c-.10311-.3495-.10311-.7091-.02062-1.0384zm2.74272-7.99833c.3351.72943 1.16514 1.47913 2.26841 2.04643 1.20123.6129 2.5829.9574 3.89243.9574h.0154.0258.0206c.1547 0 .9641-.0152 2.1344-.2584-.4949-.5673-1.2579-1.4031-2.1498-2.2237-1.91788-1.77289-3.60372-2.75052-4.74824-2.75052-.46399 0-.83003.16716-1.15483.52174-.48977.542-.58772 1.084-.30417 1.70705zm6.59384 6.38753-6.76913 1.9248 1.13421 3.8599 1.91784-.5471c.65474-2.0819 1.96939-3.9003 3.71708-5.2376zm-5.0936 7.6083 3.7944 12.8915 6.5681-1.8691c-5.3307-.7953-9.43967-5.1769-9.43967-10.4247 0-.2938.01547-.5825.04125-.8713zm9.847-12.228c.3041-.1418.6135-.2938.928-.466.0097-.0038.0187-.0084.027-.0126.0136-.0069.0252-.0127.0348-.0127 2.3973-1.0942 3.6295-2.57328 4.243-3.62182.7269-1.24103 1.0001-2.58844.7527-3.6927-.1341-.59266-.4073-1.07388-.7991-1.40313-.4073-.34951-.9383-.52174-1.5776-.52174-.4434 0-.928.08611-1.4487.25327-1.3713.4407-2.124 1.59562-2.3818 3.63192-.2269 1.79316-.0103 3.90545.2217 5.8455zm-13.79816 39.482-2.39214-4.2853 9.89852-4.3512zm9.83146 2.2187-4.80486-.1824 3.98006-8.5504zm-8.83645-10.683-1.24247-2.2085 5.57307.9624z" fill="url(#a)" fill-rule="evenodd"/><g fill="#fff"><path clip-rule="evenodd" d="m6.34189 23.8514 3.81501 12.9473 8.1663-2.3251-3.815-12.9472zm22.55011-6.4888-8.1663 2.325 3.815 12.9473 8.1663-2.3251zm.3608-7.2942-10.5017 2.9886 1.4178 4.802 10.5017-2.9886zm-16.7089 4.7513-10.45528 2.9734 1.4126 4.8021 10.46048-2.9734z" fill-rule="evenodd"/><path d="m27.3707 46.415v-10.3779h7.1894v1.9449h-4.624v2.4739h3.9906v1.976h-3.9906v3.9831z"/><path d="m36.402 46.415v-10.3779h5.1465c1.193 0 2.1273.2749 2.8029.8246.6757.5394 1.0135 1.3589 1.0135 2.4584 0 .4356-.0845.8609-.2534 1.2758-.1583.4045-.4012.7676-.7284 1.0891-.3167.3112-.7126.5342-1.1877.6691l2.7079 4.0609h-3.2621l-2.0903-3.5786h-1.5836v3.5786zm2.5653-5.4301h2.1537c.4539 0 .8128-.1193 1.0768-.3579.2639-.2386.3959-.6327.3959-1.1825 0-.4771-.1162-.8402-.3484-1.0891-.2323-.2489-.5701-.3734-1.0135-.3734h-2.2645z"/><path d="m47.6291 46.415v-10.3779h7.2369v1.9449h-4.6715v2.256h4.0539v1.9605h-4.0539v2.2716h4.6715v1.9449z"/><path d="m57.016 46.415v-10.3779h7.2369v1.9449h-4.6715v2.256h4.0539v1.9605h-4.0539v2.2716h4.6715v1.9449z"/><path d="m40.2194 30.2227c-1.0346 0-1.9425-.1815-2.7237-.5446-.7706-.363-1.3671-.9387-1.7894-1.727-.4223-.7884-.6334-1.8256-.6334-3.1118 0-1.2655.2111-2.2976.6334-3.0963s1.0188-1.3847 1.7894-1.7581c.7707-.3838 1.6786-.5757 2.7237-.5757.6651 0 1.3091.0674 1.932.2022.6334.1349 1.2457.3216 1.8369.5602v2.2871c-.6334-.3319-1.2246-.5964-1.7736-.7935-.5384-.197-1.0979-.2956-1.6786-.2956-.6017 0-1.119.1089-1.5518.3268-.4223.2074-.7443.5653-.966 1.0735-.2217.4979-.3326 1.1825-.3326 2.0538 0 .8609.1109 1.5455.3326 2.0538.2322.4979.5542.8557.966 1.0736.4117.2178.892.3267 1.441.3267.285 0 .549-.0156.7918-.0467.2533-.0415.475-.1089.6651-.2022v-1.836h-1.7419v-1.9604h4.3072v4.8855c-.6545.363-1.3407.6379-2.0586.8246-.7073.1867-1.4305.2801-2.1695.2801z"/><path d="m46.6971 30.0204v-10.3778h7.2368v1.9448h-4.6715v2.2561h4.0539v1.9604h-4.0539v2.2716h4.6715v1.9449z"/><path d="m58.3009 30.0204v-8.433h-2.9612v-1.9448h8.5354v1.9448h-3.0088v8.433z"/></g></svg>

<svg width="73" height="60" viewBox="0 0 73 60" fill="none" xmlns="http://www.w3.org/2000/svg">
<path fill-rule="evenodd" clip-rule="evenodd" d="M17.9885 36.7086C19.6645 49.8408 31.0695 60.0001 44.8895 60.0001C59.8636 60.0001 72.0025 48.0732 72.0025 33.3607C72.0025 18.6481 59.8636 6.72123 44.8895 6.72123C39.9112 6.72123 35.2463 8.03949 31.2367 10.3401L31.0587 9.73576C30.9143 9.24948 30.5844 8.84424 30.1358 8.6011C29.8471 8.44408 29.5275 8.36303 29.2027 8.36303C29.0223 8.36303 28.8418 8.38836 28.6665 8.43901L21.8819 10.3689C22.3923 9.82694 22.8357 9.23935 23.1966 8.62137C23.6915 7.77544 24.0266 6.89912 24.1916 6.0076C24.3565 5.13128 24.3462 4.28536 24.171 3.49515C23.9441 2.477 23.4337 1.61587 22.7068 1.00296C21.9283 0.349515 20.923 0 19.7991 0C19.1392 0 18.4381 0.116505 17.7111 0.354581C15.5613 1.04855 14.2931 2.83158 13.9373 5.64796C13.7414 7.21824 13.8342 8.92529 13.9992 10.5716C13.561 10.1055 13.0454 9.57874 12.4732 9.04686C11.4679 8.11483 10.5089 7.37021 9.61188 6.83327C8.40549 6.10385 7.29191 5.73407 6.30206 5.73407C5.2555 5.73407 4.33266 6.14437 3.62121 6.92951C3.09535 7.51204 2.77571 8.15535 2.6726 8.83918C2.57465 9.48756 2.67776 10.141 2.97677 10.7944C3.69338 12.3647 5.4978 13.702 7.63733 14.4213L1.56417 16.1435C0.538231 16.4373 -0.0494935 17.4859 0.244369 18.4939L1.66213 23.3162C1.80648 23.8025 2.13643 24.2077 2.58496 24.4508C2.87367 24.6079 3.1933 24.6889 3.5181 24.6889C3.69854 24.6889 3.87898 24.6636 4.05427 24.6129L4.37391 24.5218L8.16834 37.4133C8.42612 38.2896 9.24584 38.862 10.1326 38.862C10.3233 38.862 10.5141 38.8367 10.6997 38.781L17.9885 36.7086ZM27.5127 12.9108C27.0835 13.2632 26.6656 13.6285 26.2595 14.0059H19.7166L27.2075 11.8784L27.5127 12.9108ZM29.5379 11.3998C29.4408 11.4654 29.3442 11.5316 29.2481 11.5985L29.1666 11.3212C29.0635 10.9819 28.8779 10.6729 28.6201 10.4297L29.2027 10.2626L29.5379 11.3998ZM2.10034 17.9671L3.52325 22.7894L3.83774 22.6982L2.70353 18.8383C2.60042 18.4888 2.60042 18.1292 2.68291 17.7999L2.10034 17.9671ZM4.84306 9.96877C5.17816 10.6982 6.0082 11.4479 7.11147 12.0152C8.3127 12.6281 9.69437 12.9726 11.0039 12.9726H11.0193H11.0451H11.0657C11.2204 12.9726 12.0298 12.9574 13.2001 12.7142C12.7052 12.1469 11.9422 11.3111 11.0503 10.4905C9.13242 8.71761 7.44658 7.73998 6.30206 7.73998C5.83807 7.73998 5.47203 7.90714 5.14723 8.26172C4.65746 8.80372 4.55951 9.34572 4.84306 9.96877ZM11.4369 16.3563L4.66777 18.2811L5.80198 22.141L7.71982 21.5939C8.37456 19.512 9.68921 17.6936 11.4369 16.3563ZM6.3433 23.9646L10.1377 36.8561L16.7058 34.987C11.3751 34.1917 7.26613 29.8101 7.26613 24.5623C7.26613 24.2685 7.2816 23.9798 7.30738 23.691L6.3433 23.9646ZM16.1903 11.7366C16.4944 11.5948 16.8038 11.4428 17.1183 11.2706C17.128 11.2668 17.137 11.2622 17.1453 11.258C17.1589 11.2511 17.1705 11.2453 17.1801 11.2453C19.5774 10.1511 20.8096 8.67202 21.4231 7.62348C22.15 6.38245 22.4232 5.03504 22.1758 3.93078C22.0417 3.33812 21.7685 2.8569 21.3767 2.52765C20.9694 2.17814 20.4384 2.00591 19.7991 2.00591C19.3557 2.00591 18.8711 2.09202 18.3504 2.25918C16.9791 2.69988 16.2264 3.8548 15.9686 5.8911C15.7417 7.68426 15.9583 9.79655 16.1903 11.7366ZM2.39214 51.2186L0 46.9333L9.89852 42.5821L2.39214 51.2186ZM12.2236 53.4373L7.41874 53.2549L11.3988 44.7045L12.2236 53.4373ZM3.38715 42.7543L2.14468 40.5458L7.71775 41.5082L3.38715 42.7543Z" fill="url(#paint0_linear_81_3246)"/>
<path fill-rule="evenodd" clip-rule="evenodd" d="M6.34189 23.8514L10.1569 36.7987L18.3232 34.4736L14.5082 21.5264L6.34189 23.8514ZM28.892 17.3626L20.7257 19.6876L24.5407 32.6349L32.707 30.3098L28.892 17.3626ZM29.2528 10.0684L18.7511 13.057L20.1689 17.859L30.6706 14.8704L29.2528 10.0684ZM12.5439 14.8197L2.08862 17.7931L3.50122 22.5952L13.9617 19.6218L12.5439 14.8197Z" fill="white"/>
<path d="M27.3707 46.415V36.0371H34.5601V37.982H29.9361V40.4559H33.9267V42.4319H29.9361V46.415H27.3707Z" fill="white"/>
<path d="M36.402 46.415V36.0371H41.5485C42.7415 36.0371 43.6758 36.312 44.3514 36.8617C45.0271 37.4011 45.3649 38.2206 45.3649 39.3201C45.3649 39.7557 45.2804 40.181 45.1115 40.5959C44.9532 41.0004 44.7103 41.3635 44.3831 41.685C44.0664 41.9962 43.6705 42.2192 43.1954 42.3541L45.9033 46.415H42.6412L40.5509 42.8364H38.9673V46.415H36.402ZM38.9673 40.9849H41.121C41.5749 40.9849 41.9338 40.8656 42.1978 40.627C42.4617 40.3884 42.5937 39.9943 42.5937 39.4445C42.5937 38.9674 42.4775 38.6043 42.2453 38.3554C42.013 38.1065 41.6752 37.982 41.2318 37.982H38.9673V40.9849Z" fill="white"/>
<path d="M47.6291 46.415V36.0371H54.866V37.982H50.1945V40.238H54.2484V42.1985H50.1945V44.4701H54.866V46.415H47.6291Z" fill="white"/>
<path d="M57.016 46.415V36.0371H64.2529V37.982H59.5814V40.238H63.6353V42.1985H59.5814V44.4701H64.2529V46.415H57.016Z" fill="white"/>
<path d="M40.2194 30.2227C39.1848 30.2227 38.2769 30.0412 37.4957 29.6781C36.7251 29.3151 36.1286 28.7394 35.7063 27.9511C35.284 27.1627 35.0729 26.1255 35.0729 24.8393C35.0729 23.5738 35.284 22.5417 35.7063 21.743C36.1286 20.9443 36.7251 20.3583 37.4957 19.9849C38.2664 19.6011 39.1743 19.4092 40.2194 19.4092C40.8845 19.4092 41.5285 19.4766 42.1514 19.6114C42.7848 19.7463 43.3971 19.933 43.9883 20.1716V22.4587C43.3549 22.1268 42.7637 21.8623 42.2147 21.6652C41.6763 21.4682 41.1168 21.3696 40.5361 21.3696C39.9344 21.3696 39.4171 21.4785 38.9843 21.6964C38.562 21.9038 38.24 22.2617 38.0183 22.7699C37.7966 23.2678 37.6857 23.9524 37.6857 24.8237C37.6857 25.6846 37.7966 26.3692 38.0183 26.8775C38.2505 27.3754 38.5725 27.7332 38.9843 27.9511C39.396 28.1689 39.8763 28.2778 40.4253 28.2778C40.7103 28.2778 40.9743 28.2622 41.2171 28.2311C41.4704 28.1896 41.6921 28.1222 41.8822 28.0289V26.1929H40.1403V24.2325H44.4475V29.118C43.793 29.481 43.1068 29.7559 42.3889 29.9426C41.6816 30.1293 40.9584 30.2227 40.2194 30.2227Z" fill="white"/>
<path d="M46.6971 30.0204V19.6426H53.9339V21.5874H49.2624V23.8435H53.3163V25.8039H49.2624V28.0755H53.9339V30.0204H46.6971Z" fill="white"/>
<path d="M58.3009 30.0204V21.5874H55.3397V19.6426H63.8751V21.5874H60.8663V30.0204H58.3009Z" fill="white"/>
<defs>
<linearGradient id="paint0_linear_81_3246" x1="36.0012" y1="0" x2="36.0012" y2="60.0001" gradientUnits="userSpaceOnUse">
<stop stop-color="#EEC800"/>
<stop offset="0.46875" stop-color="#EE148A"/>
<stop offset="1" stop-color="#C728FF"/>
</linearGradient>
</defs>
</svg>
